X:1 %Music
T:Little Tickle Jig
C:Mary Ann Tracy
F: http://www.quiteapair.us/calling/ACDOL.html
Q:1/4=120 %Tempo
V:1 %
M:6/8 %Meter
L:1/8 %Default note length
K:G
gfe fed |B2 G G3 |gfe dBG |E3 E3 |
gfe fed |B2 G G2 D |EGE FDF |G3 G3 ::
e2 e efg |d2 B GAB |c2 A DEF |G2 B d3 |
e2 e efg |d2 B GAB |cAF DEF |G3 G3 :|
